icons/hospital-two-color.svg

<?xml version="1.0" encoding="UTF-8"?><svg xmlns="http://www.w3.org/2000/svg" viewBox="0 0 50 50"><g id="uuid-2ff8a7e0-4045-49dd-adc1-0286663f18aa"><g><path d="M37.54,13.83V3.03H15.16V13.83c-4.04,0-8.08-.01-12.12-.02V49.21h14.58v.06h17.47v-.06h14.58V13.82c-4.04,0-8.08,.01-12.12,.02ZM8.85,41.26h-3.9v-3.9h3.9v3.9Zm0-9.1h-3.9v-3.9h3.9v3.9Zm0-9.1h-3.9v-3.9h3.9v3.9Zm17.91-4.92h4.54v4.54h-4.54v-4.54Zm-8.95,0h4.54v4.54h-4.54v-4.54Zm.1,8.96h4.54v4.54h-4.54v-4.54Zm6.25,20.8h-5.54v-11.84h5.54v11.84Zm6.54,0h-5.54v-11.84h5.54v11.84Zm.71-16.26h-4.54v-4.54h4.54v4.54Zm12.96,9.61h-3.9v-3.9h3.9v3.9Zm0-9.1h-3.9v-3.9h3.9v3.9Zm0-9.1h-3.9v-3.9h3.9v3.9Z" fill="#ffcd00"/><rect x="17.9" y="27.11" width="4.54" height="4.54" fill="none"/><rect x="4.94" y="37.36" width="3.9" height="3.9" fill="none"/><rect x="17.8" y="18.15" width="4.54" height="4.54" fill="none"/><rect x="18.61" y="36.07" width="5.54" height="11.84" fill="none"/><rect x="4.94" y="19.17" width="3.9" height="3.9" fill="none"/><rect x="26.75" y="18.15" width="4.54" height="4.54" fill="none"/><rect x="40.45" y="28.26" width="3.9" height="3.9" fill="none"/><rect x="40.45" y="19.17" width="3.9" height="3.9" fill="none"/><rect x="26.85" y="27.11" width="4.54" height="4.54" fill="none"/><rect x="4.94" y="28.26" width="3.9" height="3.9" fill="none"/><rect x="40.45" y="37.36" width="3.9" height="3.9" fill="none"/><g><path d="M48.47,11.52h-11.62V1.23c0-.28-.22-.5-.5-.5H12.96c-.28,0-.5,.22-.5,.5V11.52H.83c-.28,0-.5,.22-.5,.5V48.41c0,.28,.22,.5,.5,.5H18.11c-.28,0-.5-.22-.5-.5v-.5h-4.15V1.73h22.39V47.91h-4.15v.5c0,.28-.22,.5-.5,.5h17.28c.28,0,.5-.22,.5-.5V12.02c0-.28-.22-.5-.5-.5Zm-.5,36.4h-11.12V12.52h11.12V47.91ZM1.33,12.52H12.46V47.91H1.33V12.52Z"/><polygon points="23.92 11.95 25.95 11.95 25.95 10.44 27.46 10.44 27.46 8.41 25.95 8.41 25.95 6.9 23.92 6.9 23.92 8.41 22.41 8.41 22.41 10.44 23.92 10.44 23.92 11.95"/><path d="M24.93,14.97c3.06,0,5.54-2.49,5.54-5.54s-2.49-5.54-5.54-5.54-5.54,2.49-5.54,5.54,2.49,5.54,5.54,5.54Zm0-10.09c2.5,0,4.54,2.04,4.54,4.54s-2.04,4.54-4.54,4.54-4.54-2.04-4.54-4.54,2.04-4.54,4.54-4.54Z"/><path d="M9.35,18.17H4.44c-.28,0-.5,.22-.5,.5v4.9c0,.28,.22,.5,.5,.5h4.9c.28,0,.5-.22,.5-.5v-4.9c0-.28-.22-.5-.5-.5Zm-.5,4.9h-3.9v-3.9h3.9v3.9Z"/><path d="M9.35,27.26H4.44c-.28,0-.5,.22-.5,.5v4.9c0,.28,.22,.5,.5,.5h4.9c.28,0,.5-.22,.5-.5v-4.9c0-.28-.22-.5-.5-.5Zm-.5,4.9h-3.9v-3.9h3.9v3.9Z"/><path d="M9.35,36.36H4.44c-.28,0-.5,.22-.5,.5v4.9c0,.28,.22,.5,.5,.5h4.9c.28,0,.5-.22,.5-.5v-4.9c0-.28-.22-.5-.5-.5Zm-.5,4.9h-3.9v-3.9h3.9v3.9Z"/><path d="M44.86,18.17h-4.9c-.28,0-.5,.22-.5,.5v4.9c0,.28,.22,.5,.5,.5h4.9c.28,0,.5-.22,.5-.5v-4.9c0-.28-.22-.5-.5-.5Zm-.5,4.9h-3.9v-3.9h3.9v3.9Z"/><path d="M44.86,27.26h-4.9c-.28,0-.5,.22-.5,.5v4.9c0,.28,.22,.5,.5,.5h4.9c.28,0,.5-.22,.5-.5v-4.9c0-.28-.22-.5-.5-.5Zm-.5,4.9h-3.9v-3.9h3.9v3.9Z"/><path d="M44.86,36.36h-4.9c-.28,0-.5,.22-.5,.5v4.9c0,.28,.22,.5,.5,.5h4.9c.28,0,.5-.22,.5-.5v-4.9c0-.28-.22-.5-.5-.5Zm-.5,4.9h-3.9v-3.9h3.9v3.9Z"/><path d="M31.19,35.07h-13.08c-.28,0-.5,.22-.5,.5v12.84c0,.28,.22,.5,.5,.5h13.08c.28,0,.5-.22,.5-.5v-12.84c0-.28-.22-.5-.5-.5Zm-7.04,12.84h-5.54v-11.84h5.54v11.84Zm6.54,0h-5.54v-11.84h5.54v11.84Z"/><path d="M17.3,23.69h5.54c.28,0,.5-.22,.5-.5v-5.54c0-.28-.22-.5-.5-.5h-5.54c-.28,0-.5,.22-.5,.5v5.54c0,.28,.22,.5,.5,.5Zm.5-5.54h4.54v4.54h-4.54v-4.54Z"/><path d="M26.25,23.69h5.54c.28,0,.5-.22,.5-.5v-5.54c0-.28-.22-.5-.5-.5h-5.54c-.28,0-.5,.22-.5,.5v5.54c0,.28,.22,.5,.5,.5Zm.5-5.54h4.54v4.54h-4.54v-4.54Z"/><path d="M23.45,32.16v-5.54c0-.28-.22-.5-.5-.5h-5.54c-.28,0-.5,.22-.5,.5v5.54c0,.28,.22,.5,.5,.5h5.54c.28,0,.5-.22,.5-.5Zm-1-.5h-4.54v-4.54h4.54v4.54Z"/><path d="M31.9,26.11h-5.54c-.28,0-.5,.22-.5,.5v5.54c0,.28,.22,.5,.5,.5h5.54c.28,0,.5-.22,.5-.5v-5.54c0-.28-.22-.5-.5-.5Zm-.5,5.54h-4.54v-4.54h4.54v4.54Z"/></g></g></g><g id="uuid-2bc75998-5b20-479a-a7f8-37af6c42e4ad"><text transform="translate(.22 54.92)" font-family="Roboto-Regular, Roboto" font-size="6"><tspan x="0" y="0">hospital</tspan></text></g></svg>

<svg xmlns="http://www.w3.org/2000/svg" viewBox="0 0 50 50"><g id="a64934a3-dd3e-462a-b78d-8527d7744453" data-name="ICONS"><path d="M37.54,13.83V3H15.16v10.8H3V49.21H17.61v.06H35.08v-.06H49.67V13.82ZM8.85,41.26H4.94v-3.9H8.85Zm0-9.09H4.94V28.26H8.85Zm0-9.1H4.94v-3.9H8.85Zm17.9-4.92H31.3v4.54H26.75Zm-8.95,0h4.55v4.54H17.8Zm.1,9h4.55v4.55H17.9Zm6.25,20.8H18.61V36.07h5.54Zm6.54,0H25.15V36.07h5.54Zm.71-16.25H26.85V27.11H31.4Zm13,9.6H40.45v-3.9h3.91Zm0-9.09H40.45V28.26h3.91Zm0-9.1H40.45v-3.9h3.91Z" fill="#fdd600"/><rect x="17.9" y="27.11" width="4.54" height="4.54" fill="none"/><rect x="4.94" y="37.36" width="3.9" height="3.9" fill="none"/><rect x="17.8" y="18.15" width="4.54" height="4.54" fill="none"/><rect x="18.61" y="36.07" width="5.54" height="11.84" fill="none"/><rect x="4.94" y="19.17" width="3.9" height="3.9" fill="none"/><rect x="26.75" y="18.15" width="4.54" height="4.54" fill="none"/><rect x="40.45" y="28.26" width="3.9" height="3.9" fill="none"/><rect x="40.45" y="19.17" width="3.9" height="3.9" fill="none"/><rect x="26.85" y="27.11" width="4.54" height="4.54" fill="none"/><rect x="4.94" y="28.26" width="3.9" height="3.9" fill="none"/><rect x="40.45" y="37.36" width="3.9" height="3.9" fill="none"/><path d="M48.47,11.52H36.84V1.23a.5.5,0,0,0-.5-.5H13a.5.5,0,0,0-.5.5V11.52H.83a.5.5,0,0,0-.5.5V48.41a.5.5,0,0,0,.5.5H18.11a.5.5,0,0,1-.5-.5v-.5H13.46V1.73H35.84V47.91H31.69v.5a.5.5,0,0,1-.5.5H48.47a.5.5,0,0,0,.5-.5V12A.5.5,0,0,0,48.47,11.52ZM48,47.91H36.84V12.52H48ZM1.33,12.52H12.46V47.91H1.33Z" fill="#231f20"/><polygon points="23.92 11.95 25.95 11.95 25.95 10.44 27.46 10.44 27.46 8.41 25.95 8.41 25.95 6.9 23.92 6.9 23.92 8.41 22.41 8.41 22.41 10.44 23.92 10.44 23.92 11.95" fill="#231f20"/><path d="M24.93,15a5.54,5.54,0,1,0-5.54-5.54A5.55,5.55,0,0,0,24.93,15Zm0-10.08a4.54,4.54,0,1,1-4.54,4.54A4.55,4.55,0,0,1,24.93,4.89Z" fill="#231f20"/><path d="M9.35,18.17H4.44a.5.5,0,0,0-.5.5v4.9a.5.5,0,0,0,.5.5H9.35a.5.5,0,0,0,.5-.5v-4.9A.5.5,0,0,0,9.35,18.17Zm-.5,4.9H4.94v-3.9H8.85Z" fill="#231f20"/><path d="M9.35,27.26H4.44a.51.51,0,0,0-.5.5v4.91a.51.51,0,0,0,.5.5H9.35a.51.51,0,0,0,.5-.5V27.76A.51.51,0,0,0,9.35,27.26Zm-.5,4.91H4.94V28.26H8.85Z" fill="#231f20"/><path d="M9.35,36.36H4.44a.5.5,0,0,0-.5.5v4.9a.5.5,0,0,0,.5.5H9.35a.5.5,0,0,0,.5-.5v-4.9A.5.5,0,0,0,9.35,36.36Zm-.5,4.9H4.94v-3.9H8.85Z" fill="#231f20"/><path d="M44.86,18.17H40a.5.5,0,0,0-.5.5v4.9a.5.5,0,0,0,.5.5h4.91a.5.5,0,0,0,.5-.5v-4.9A.5.5,0,0,0,44.86,18.17Zm-.5,4.9H40.45v-3.9h3.91Z" fill="#231f20"/><path d="M44.86,27.26H40a.51.51,0,0,0-.5.5v4.91a.51.51,0,0,0,.5.5h4.91a.51.51,0,0,0,.5-.5V27.76A.51.51,0,0,0,44.86,27.26Zm-.5,4.91H40.45V28.26h3.91Z" fill="#231f20"/><path d="M44.86,36.36H40a.5.5,0,0,0-.5.5v4.9a.5.5,0,0,0,.5.5h4.91a.5.5,0,0,0,.5-.5v-4.9A.5.5,0,0,0,44.86,36.36Zm-.5,4.9H40.45v-3.9h3.91Z" fill="#231f20"/><path d="M31.19,35.07H18.11a.5.5,0,0,0-.5.5V48.41a.5.5,0,0,0,.5.5H31.19a.5.5,0,0,0,.5-.5V35.57A.5.5,0,0,0,31.19,35.07Zm-7,12.84H18.61V36.07h5.54Zm6.54,0H25.15V36.07h5.54Z" fill="#231f20"/><path d="M17.3,23.69h5.55a.5.5,0,0,0,.5-.5V17.65a.5.5,0,0,0-.5-.5H17.3a.5.5,0,0,0-.5.5v5.54A.5.5,0,0,0,17.3,23.69Zm.5-5.54h4.55v4.54H17.8Z" fill="#231f20"/><path d="M26.25,23.69H31.8a.5.5,0,0,0,.5-.5V17.65a.5.5,0,0,0-.5-.5H26.25a.5.5,0,0,0-.5.5v5.54A.5.5,0,0,0,26.25,23.69Zm.5-5.54H31.3v4.54H26.75Z" fill="#231f20"/><path d="M23.45,32.16V26.61a.5.5,0,0,0-.5-.5H17.4a.5.5,0,0,0-.5.5v5.55a.51.51,0,0,0,.5.5H23A.51.51,0,0,0,23.45,32.16Zm-1-.5H17.9V27.11h4.55Z" fill="#231f20"/><path d="M31.9,26.11H26.35a.5.5,0,0,0-.5.5v5.55a.51.51,0,0,0,.5.5H31.9a.5.5,0,0,0,.5-.5V26.61A.5.5,0,0,0,31.9,26.11Zm-.5,5.55H26.85V27.11H31.4Z" fill="#231f20"/></g><g id="e52debfd-01cb-418d-ad97-c1edfd606ae3" data-name="LABELS"><text transform="translate(0.22 54.92)" font-size="6" fill="#231f20" font-family="Roboto-Regular, Roboto">hospital</text></g></svg>
